X: 37918
T: Southpark House
R: jig
M: 6/8
K: Dmajor
|:ABA AcA|AdA f2e|1 a2 e fec|BAB acB:|2 fae fec|Bfc a3||
|:ABA AcA|AdA f2e|1 a2 e fec|BAB acB:|2 fae fec|Bfc a3||
|:cae fec|aef ece|ABA AcA|AdA f2 e|
efa Aca|Bcf ece|cae fec|gfe A3:|

